!!!OTL: Amour und Liebe (2-50), S. 137
!!!id: K1132
**kern
*clefG2
*k[b-]
*F:
{16f
=1
16f
8cc
16cc
16cc
8a
8cc
=2
4.ff}
=3
{8f
=4
8f
8f
8e
8f
=5
4g}
8r
=6
{8g
=7
8b-
16b-
16b-
8a
8g
=8
4.ee}
=9
{8dd
=10
8cc
8cc
8b-
8g
=11
4f}
4r
==
*-
!!!minrhy: 16
!!!meters: 2/4 ]  ZZ[4
!!!cut: Amour und Liebe (2-50), S. 137
!!!reg: Luxemburg
!!!trd: KINTZELE, Guillaume: An der Ucht, Bd. 2, Luxemburg 1927
!!!rhy1:   X_XXX_X_  X__.
!!!rhy2: X_  X_X_X_X_  X__0_
!!!key: K1132  16  F 2/4 ]  ZZ[4
!!!mod: HEPTATONIK IONISCH]  AMBITUS[9b
!!!kad: +1271
!!!akz: 5+1_12_47_51_
!!!fot: 'a__b__c__d__
!!!for: 'a__b__av_bv_
!!!fok: 'Va_/__~a_\__
!! PHRAS[VORWIEGEND AUFTAKTIG]
!!!fkt: Scherzlied, Liebe
!! KINTZELE
!! PR[12] 2K[9] 2G[14] 3K[9] 3G[2] 4A[0] 4Ü[0] 5A[0] 6K[2] 6G[7]
!! 7K[0] 7G[0] 8A[0] MEHR[0] SI[44] ABS[43] SR[23] SP[21]
!! ST[12] 2k[5] 2g[23] 3k[12] 3g[0] 4d[2] 4ü[0] 5d[0] 6k[2] 6g[0]
!! 7k[0] 7g[0] 8d[0] mehr[0] si[44] dm[0] sr[28] sp[16]
!! 1F[48] 2F[48] 3F[0] 4F[0] LF[0] 2P[4] 3P[0] 4P[0] TRI[0] DF[3] AB[46]
!! TF[0] U3K[0] U3[0] U4[0] U4Ü[0] U5[5] U6K[0] U6[5] U7K[0] U7[5]
!! N1[5] N2K[0] N2[16] N3K[0] N3[18] N4[14] N4Ü[0] N5[20] N6K[0] N6[5]
!!!n7k: 0] N7[5] O1[5] O2K[0] O2[0] O3K[0] O3[0] HÖ[0
